packages/icons/raw/imported/GenericBrowser.svg

<svg width="32" height="32" viewBox="0 0 32 32" fill="none" xmlns="http://www.w3.org/2000/svg">
<path d="M22.5769 6.5V6V6.5ZM9.42308 6.5V7V6.5ZM6.5 22.5769H7H6.5ZM6.5 9.42308H6H6.5ZM22.5769 25.5V26V25.5ZM9.42308 25.5V25V25.5ZM25.5 22.5769L25 22.5769L25.5 22.5769ZM25.5 9.42308L26 9.42308L25.5 9.42308ZM6.50001 12.577C6.22387 12.577 6.00001 12.8008 6.00001 13.077C6.00001 13.3531 6.22387 13.577 6.50001 13.577L6.50001 12.577ZM25.1829 13.577C25.459 13.577 25.6829 13.3531 25.6829 13.077C25.6829 12.8008 25.459 12.577 25.1829 12.577V13.577ZM9.5 10.1053V10.1053V11.1053C10.0523 11.1053 10.5 10.6576 10.5 10.1053H9.5ZM9.5 10.1053V10.1053H8.5C8.5 10.6576 8.94771 11.1053 9.5 11.1053V10.1053ZM9.5 10.1053V9.1053C8.94771 9.1053 8.5 9.55302 8.5 10.1053H9.5ZM9.5 10.1053H10.5C10.5 9.55302 10.0523 9.1053 9.5 9.1053V10.1053ZM12.5 10.1053V10.1053V11.1053C13.0523 11.1053 13.5 10.6576 13.5 10.1053H12.5ZM12.5 10.1053V10.1053H11.5C11.5 10.6576 11.9477 11.1053 12.5 11.1053V10.1053ZM12.5 10.1053V9.1053C11.9477 9.1053 11.5 9.55302 11.5 10.1053H12.5ZM12.5 10.1053H13.5C13.5 9.55302 13.0523 9.1053 12.5 9.1053V10.1053ZM15.5 10.1053V10.1053V11.1053C16.0523 11.1053 16.5 10.6576 16.5 10.1053H15.5ZM15.5 10.1053V10.1053H14.5C14.5 10.6576 14.9477 11.1053 15.5 11.1053V10.1053ZM15.5 10.1053V9.1053C14.9477 9.1053 14.5 9.55302 14.5 10.1053H15.5ZM15.5 10.1053H16.5C16.5 9.55302 16.0523 9.1053 15.5 9.1053V10.1053ZM22.5769 6L9.42308 6V7L22.5769 7V6ZM7 22.5769L7 9.42308H6L6 22.5769H7ZM22.5769 25L9.42308 25V26L22.5769 26V25ZM26 22.5769L26 9.42308L25 9.42308L25 22.5769L26 22.5769ZM22.5769 26C24.4674 26 26 24.4674 26 22.5769L25 22.5769C25 23.9152 23.9151 25 22.5769 25V26ZM22.5769 7C23.9151 7 25 8.08485 25 9.42308L26 9.42308C26 7.53257 24.4674 6 22.5769 6V7ZM9.42308 6C7.53256 6 6 7.53256 6 9.42308H7C7 8.08485 8.08485 7 9.42308 7V6ZM6 22.5769C6 24.4674 7.53257 26 9.42308 26V25C8.08485 25 7 23.9151 7 22.5769H6ZM6.50001 13.577L25.1829 13.577V12.577L6.50001 12.577L6.50001 13.577Z" fill="black"/>
</svg>

<svg width="32" height="32" fill="none" xmlns="http://www.w3.org/2000/svg"><path d="M22.577 6.5V6v.5Zm-13.154 0V7v-.5ZM6.5 22.577H7h-.5Zm0-13.154H6h.5ZM22.577 25.5v.5-.5Zm-13.154 0V25v.5ZM25.5 22.577H25h.5Zm0-13.154h.5-.5Zm-19 3.154a.5.5 0 1 0 0 1v-1Zm18.683 1a.5.5 0 0 0 0-1v1ZM9.5 10.105v1a1 1 0 0 0 1-1h-1Zm0 0h-1a1 1 0 0 0 1 1v-1Zm0 0v-1a1 1 0 0 0-1 1h1Zm0 0h1a1 1 0 0 0-1-1v1Zm3 0v1a1 1 0 0 0 1-1h-1Zm0 0h-1a1 1 0 0 0 1 1v-1Zm0 0v-1a1 1 0 0 0-1 1h1Zm0 0h1a1 1 0 0 0-1-1v1Zm3 0v1a1 1 0 0 0 1-1h-1Zm0 0h-1a1 1 0 0 0 1 1v-1Zm0 0v-1a1 1 0 0 0-1 1h1Zm0 0h1a1 1 0 0 0-1-1v1ZM22.577 6H9.423v1h13.154V6ZM7 22.577V9.423H6v13.154h1ZM22.577 25H9.423v1h13.154v-1ZM26 22.577V9.423h-1v13.154h1ZM22.577 26A3.423 3.423 0 0 0 26 22.577h-1A2.423 2.423 0 0 1 22.577 25v1Zm0-19A2.423 2.423 0 0 1 25 9.423h1A3.423 3.423 0 0 0 22.577 6v1ZM9.423 6A3.423 3.423 0 0 0 6 9.423h1A2.423 2.423 0 0 1 9.423 7V6ZM6 22.577A3.423 3.423 0 0 0 9.423 26v-1A2.423 2.423 0 0 1 7 22.577H6Zm.5-9h18.683v-1H6.5v1Z" fill="#000"/></svg>
